X:5368
T:Flower of the Flock, The
S:Matt Molloy solo on Bothy Band, 1975
D:Green Linnet GLCD 3011
N:First time through transcribed by Alan Ng
Z: id:ng-reels-39 transcribed by Alan Ng agng@students.wisc.edu Oct. 22, 2000
R:reel
M:C|
K:G
DEGA B~G3|cABG A~E3|DEGD ~B3e|1dBAD ~G3z:|2dBAB ~G3z|:~g3e dGBG|~A3G AGef|\
~g3e dG(3Bcd|ezag agef|~g3e dGBG|AzBG AGEG|DEGD ~B3e|dBAD ~G3z||**
